symbols/web/picture_in_picture_alt/materialsymbolsrounded/picture_in_picture_alt_gradN25fill1_24px.svg

<svg xmlns="http://www.w3.org/2000/svg" height="24" width="24"><path d="M11.975 16.925h6q.4 0 .663-.262.262-.263.262-.663v-4.025q0-.4-.262-.663-.263-.262-.663-.262h-6q-.4 0-.663.262-.262.263-.262.663V16q0 .4.262.663.263.262.663.262Zm-7.85 2.85q-.775 0-1.325-.55-.55-.55-.55-1.325V6.1q0-.775.55-1.325.55-.55 1.325-.55h15.75q.775 0 1.325.55.55.55.55 1.325v11.8q0 .775-.55 1.325-.55.55-1.325.55Zm10.85-5.8Z"/></svg>

<svg xmlns="http://www.w3.org/2000/svg" height="24" width="24"><path d="M11.975 16.925H17.975Q18.375 16.925 18.638 16.663Q18.9 16.4 18.9 16V11.975Q18.9 11.575 18.638 11.312Q18.375 11.05 17.975 11.05H11.975Q11.575 11.05 11.312 11.312Q11.05 11.575 11.05 11.975V16Q11.05 16.4 11.312 16.663Q11.575 16.925 11.975 16.925ZM4.125 19.775Q3.35 19.775 2.8 19.225Q2.25 18.675 2.25 17.9V6.1Q2.25 5.325 2.8 4.775Q3.35 4.225 4.125 4.225H19.875Q20.65 4.225 21.2 4.775Q21.75 5.325 21.75 6.1V17.9Q21.75 18.675 21.2 19.225Q20.65 19.775 19.875 19.775ZM14.975 13.975Z"/></svg>
